usr/share/icons/biglinux-icons-material-dark/symbolic/actions/gnumeric-link-internal.svg

<svg xmlns="http://www.w3.org/2000/svg" viewBox="0 0 16 16">
<defs id="defs3051">
<style id="current-color-scheme" type="text/css">
.ColorScheme-Contrast{color:#dedede}
</style>
</defs>
<path d="M3 2v12h7l3-3V2zm1 1h8v7H9v3H4zm3 3v1h4V6zm0 2v1h3V8z" class="ColorScheme-Contrast" style="fill:currentColor;fill-opacity:1;stroke:none"/>
<path d="M5 4v8h3v-1H6V5h5V4z" style="fill:#1d99f3"/>
</svg>

<svg xmlns="http://www.w3.org/2000/svg" viewBox="0 0 16 16">
  <defs id="defs3051">
    <style type="text/css" id="current-color-scheme">
      .ColorScheme-Text {
        color:#dedede;
      }
      </style>
  </defs>
 <path style="fill:currentColor;fill-opacity:1;stroke:none" 
       d="M 3 2 L 3 14 L 10 14 L 13 11 L 13 2 L 3 2 z M 4 3 L 12 3 L 12 10 L 9 10 L 9 13 L 4 13 L 4 3 z M 7 6 L 7 7 L 11 7 L 11 6 L 7 6 z M 7 8 L 7 9 L 10 9 L 10 8 L 7 8 z "
     class="ColorScheme-Text"
     />
 <path 
     style="fill:#1d99f3" 
     d="M 5 4 L 5 5 L 5 12 L 6 12 L 8 12 L 8 11 L 6 11 L 6 5 L 11 5 L 11 4 L 5 4 z "
     />
</svg>
